icons/white/ebay.svg

<?xml version="1.0" encoding="UTF-8"?><svg id="a" xmlns="http://www.w3.org/2000/svg" viewBox="0 0 48 48"><defs><style>.j{fill:none;stroke:#fff;stroke-linecap:round;stroke-linejoin:round;}</style></defs><g id="b"><path id="c" class="j" d="m38.5,24.8094v3.3577c0,1.3687-1.1095,2.4783-2.4782,2.4784-.0067,0-.0134,0-.0201,0h0c-.6607.0041-1.295-.259-1.7588-.7295"/><path id="d" class="j" d="m38.5,20.7022v4.1072c0,1.3742-1.114,2.4883-2.4883,2.4883-.0033,0-.0067,0-.01,0h0c-1.3703-.0055-2.4783-1.1179-2.4783-2.4883v-4.1072"/><path id="e" class="j" d="m14.1668,25.9986c-.4308.7876-1.251,1.2835-2.1485,1.2991h0c-1.3742.0055-2.4927-1.104-2.4983-2.4783,0-.0033,0-.0067,0-.01v-1.6189c0-1.3742,1.114-2.4883,2.4883-2.4883.0033,0,.0067,0,.01,0h0c1.3703.0055,2.4783,1.1179,2.4783,2.4883v.8094h-4.9966"/><path id="f" class="j" d="m30.4955,24.8094c0,1.3742-1.114,2.4883-2.4883,2.4883h0c-1.3703-.0055-2.4783-1.1179-2.4783-2.4883v-1.6189c0-1.3703,1.108-2.4828,2.4783-2.4883h0c1.3742,0,2.4883,1.114,2.4883,2.4883"/><line id="g" class="j" x1="30.4955" y1="27.2977" x2="30.4955" y2="20.7022"/><path id="h" class="j" d="m17.5245,23.1905c0-1.3742,1.114-2.4883,2.4883-2.4883h0c1.3703.0055,2.4783,1.1179,2.4783,2.4883v1.6189c0,1.3703-1.108,2.4828-2.4783,2.4883h0c-1.3742,0-2.4883-1.114-2.4883-2.4883"/><line id="i" class="j" x1="17.5245" y1="27.2977" x2="17.5245" y2="17.3545"/></g><rect class="j" x="5.5" y="5.5" width="37" height="37" rx="2" ry="2"/></svg>

<svg xmlns="http://www.w3.org/2000/svg" viewBox="0 0 48 48"><defs><style>.a{fill:none;stroke:#fff;stroke-linecap:round;stroke-linejoin:round;}</style></defs><path class="a" d="M38.5,24.81v3.36A2.48,2.48,0,0,1,36,30.65h0a2.45,2.45,0,0,1-1.76-.73"/><path class="a" d="M38.5,20.7v4.11A2.49,2.49,0,0,1,36,27.3h0a2.49,2.49,0,0,1-2.48-2.49V20.7"/><path class="a" d="M14.15,26A2.5,2.5,0,0,1,12,27.3h0A2.49,2.49,0,0,1,9.5,24.81V23.19A2.49,2.49,0,0,1,12,20.7h0a2.49,2.49,0,0,1,2.48,2.49V24h-5"/><path class="a" d="M30.49,24.81A2.49,2.49,0,0,1,28,27.3h0a2.49,2.49,0,0,1-2.48-2.49V23.19A2.49,2.49,0,0,1,28,20.7h0a2.49,2.49,0,0,1,2.49,2.49"/><line class="a" x1="30.49" y1="27.3" x2="30.49" y2="20.7"/><path class="a" d="M17.51,23.19A2.49,2.49,0,0,1,20,20.7h0a2.49,2.49,0,0,1,2.48,2.49v1.62A2.49,2.49,0,0,1,20,27.3h0a2.49,2.49,0,0,1-2.49-2.49"/><line class="a" x1="17.51" y1="27.3" x2="17.51" y2="17.35"/><path class="a" d="M40.5,42.5H7.5a2,2,0,0,1-2-2V7.5a2,2,0,0,1,2-2h33a2,2,0,0,1,2,2v33A2,2,0,0,1,40.5,42.5Z"/></svg>
